X: 321
T: Chan jiao
%%abc-version 2.0
%%abcx-abcm2ps-target-version 5.9.1 (29 Sep 2008)
%%abc-creator hum2abc beta
%%abcx-conversion-date 2013/10/02 07:52:30
%%abc-edited-by Helmut Schaffrath
%%humdrum-veritas 472030252
%%humdrum-veritas-data 535162152
%%continueall 1
%%barnumbers 0
L: 1/8
M: 2/4
K: G
z A A A [I:setbarnb 1]| 
d B/ d/ B A | 
z d B A | 
F EG2 | 
z F E D | 
d B/ d/ B E | 
F A E B, | 
D3z | 
G G F E | 
D EG2 | 
A> G F E | 
D> EG2 | 
z A A F | 
z B G A | 
B> d B E | 
F A E B, | 
D4 |]  



